src/assets/icons/fa/plus-circle.svg

<?xml version="1.0" encoding="utf-8"?>
<svg width="1792" height="1792" viewBox="0 0 1792 1792" xmlns="http://www.w3.org/2000/svg"><path d="M1344 960v-128q0-26-19-45t-45-19h-256v-256q0-26-19-45t-45-19h-128q-26 0-45 19t-19 45v256h-256q-26 0-45 19t-19 45v128q0 26 19 45t45 19h256v256q0 26 19 45t45 19h128q26 0 45-19t19-45v-256h256q26 0 45-19t19-45zm320-64q0 209-103 385.5t-279.5 279.5-385.5 103-385.5-103-279.5-279.5-103-385.5 103-385.5 279.5-279.5 385.5-103 385.5 103 279.5 279.5 103 385.5z"/></svg>

<svg width="1792" height="1792" xmlns="http://www.w3.org/2000/svg"><path d="M1344 960V832q0-26-19-45t-45-19h-256V512q0-26-19-45t-45-19H832q-26 0-45 19t-19 45v256H512q-26 0-45 19t-19 45v128q0 26 19 45t45 19h256v256q0 26 19 45t45 19h128q26 0 45-19t19-45v-256h256q26 0 45-19t19-45zm320-64q0 209-103 385.5T1281.5 1561 896 1664t-385.5-103T231 1281.5 128 896t103-385.5T510.5 231 896 128t385.5 103T1561 510.5 1664 896z"/></svg>
